X:1
T:Schwanengesang, D.957
T:Liebesbotschaft
T:Schwanengesang, D.957
T:1. Liebesbotschaft
T:Franz Schubert
T:Ludwig Rellstab
T:OpenScore (CC0)
T:OpenScore (CC0)
T:OpenScore (CC0)
T:OpenScore (CC0)
T:OpenScore (CC0)
T:OpenScore (CC0)
T:OpenScore (CC0)
C:Franz Schubert
Z:Ludwig Rellstab
Z:OpenScore (CC0)
%%score 1 { 2 | ( 3 4 ) }
L:1/8
Q:1/4=60
M:2/4
K:G
V:1 treble nm="Voice"
V:2 treble nm="Piano"
V:3 bass 
V:4 bass 
V:1
"^Ziemlich langsam" z4 | z4 | z4 | z4 | z4 |!p! B c/ c/ d B/ B/ | e d/ d/ c z | z4 | %8
w: |||||Rau- schen- des Bäch- lein, so|sil- bern und hell,||
 A B/ B/ c A/ A/ | d c/ c/ B z | z4 | B B/ B/ e B/ B/ | c B/ A/ B2 | z4 | B G/ F/ E g/ g/ | %15
w: eilst zur Ge- lieb- ten so|mun- ter und schnell?||Ach! trau- tes Bäch- lein, mein|Bo- te sei du;||brin- ge die Grü- sse des|
 f ^d/ d/ e2 | z4 | e c/ c/ G E/ =F/ | G/d/ d/ B/ c z | e c/ c/ G E/ =F/ | G/d/ d/B/ c z | %21
w: Fer- nen ihr zu.||All' ih- re Blu- men im|Gar- * ten ge- pflegt,|die sie so lieb- lich am|Bu- * sen _ trägt,|
 c _B/ B/ A/e/ e/ ^c/ | d e/ e/ =f>e | d/c/ B/ A/ A/G/ G/ G/ | G/d/ d/ B/ c z | %25
w: und ih- re Ro- * sen in|pur- pur- ner Gluth, _|Bäch- * lein, er- qui- * cke mit|küh- * len- der Fluth,|
 e d/ d/ ^c/g/ g/ c/ | d e/ e/ =f>e | d/c/ B/ A/ A/G/ G/ G/ | G/d/ d/ B/ c2 | z4 | z2 | z2 | %32
w: und ih- re Ro- * sen in|pur- pur- ner Gluth, _|Bäch- * lein, er- qui- * cke mit|küh- * len- der Fluth.||||
 c2 c c | Be B3/2 B/ | B2 B ^c | d3 z | A2 A A | Gc G3/2 G/ | G3 A | B3 z | %40
w: Wenn sie am|U- * fer, in|Träu- me ver-|senkt,|mei- ner ge-|den- * kend, das|Köpf- chen|hängt:|
!<(! ^d ^c/ B/ B F/ B/!<)! |!mf! ^A/^G/ ^c/ ^B/ ^d/c/ z | ^c c/ ^d/ e d/c/ | B ^c3/4 F/4 ^d2 | %44
w: trö- ste die Sü- sse mit|freund- * li- chem Blick, *|denn der Ge- lieb- te _|kehrt bald zu- rück,|
 ^d ^c/ B/ ^A ^G/ B/ | ^d ^c/ B/ ^A^G/ z/ | ^c ^d3/4 d/4 f/e/ d/c/ | B ^d2 ^c | B2 z2 | z4 | z4 | %51
w: trö- ste die Sü- sse mit|freund- li- chem Blick, _|denn der Ge- lieb- * te _|kehrt bald zu-|rück.|||
 z4 |!pp! B c/ c/ d B/ B/ | e d/ d/ c z | z4 | A B/ B/ c A/ A/ | d3/2 c/ B z | z4 | %58
w: |Neigt sich die Son- ne mit|röth- li- chem Schein,||wie- ge das Lieb- chen in|Schlum- mer ein;||
 B B/ B/ e B/ B/ | d/c/{c} B/A/ B2 | z4 | B G/ F/ E g/ g/ | f ^d e2 | z4 | e2 d c | Bg e c | B4- | %67
w: rau- sche sie mur- melnd in|sü- * sse _ Ruh,||flü- st're ihr Träu- me der|Lie- be zu,||flü- st're ihr|Träu- * me der|Lie-|
 B>A A>G | G3 z | z4 | z4 | z4 | z4 | z4 | z4 | !fermata!z4 |] %76
w: * * be _|zu.||||||||
V:2
!p! [B,D]/4G/4[B,D]/4G,/4 [B,D]/4G/4[B,D]/4G,/4 [DG]/4B/4[DG]/4B,/4 [GB]/4d/4[GB]/4D/4 | %1
 [Ac]/4d/4[Ac]/4D/4 [Ac]/4d/4[Ac]/4D/4 [FA]/4d/4[FA]/4D/4 [DF]/4A/4[DF]/4C/4 | %2
 [B,D]/4G/4[B,D]/4G,/4 [B,D]/4G/4[B,D]/4G,/4 [DG]/4B/4[DG]/4B,/4 [GB]/4d/4[^GB]/4D/4 | %3
 [Ac]/4d/4[Ac]/4D/4 [Ac]/4d/4[Ac]/4D/4 [FA]/4d/4[FA]/4D/4 [DF]/4A/4[DF]/4C/4 | %4
 [B,D]/4G/4[B,D]/4G,/4 [B,D]/4G/4[B,D]/4G,/4 [B,D]/4G/4[B,D]/4G,/4 [B,D]/4G/4[B,D]/4G,/4 | %5
!pp! G/4d/4G/4D/4 A/4d/4A/4D/4 B/4d/4B/4D/4 G/4d/4G/4D/4 | %6
 G/4e/4G/4E/4 ^G/4d/4G/4E/4 A/4c/4A/4E/4 A/4c/4A/4E/4 | %7
 A/4e/4A/4E/4 ^G/4d/4G/4E/4 A/4c/4A/4E/4 A/4c/4A/4E/4 | %8
 F/4d/4F/4D/4 G/4d/4G/4D/4 A/4d/4A/4D/4 F/4d/4F/4D/4 | %9
 G/4d/4G/4D/4 [FA]/4d/4[FA]/4D/4 [GB]/4d/4[GB]/4D/4 [GB]/4d/4[GB]/4D/4 | %10
 G/4d/4G/4D/4 [FA]/4d/4[FA]/4D/4 [GB]/4d/4[GB]/4D/4 [GB]/4d/4[GB]/4D/4 | %11
 [GB]/4e/4[GB]/4E/4 [GB]/4e/4[GB]/4E/4 [GB]/4e/4[GB]/4E/4 [GB]/4e/4[GB]/4E/4 | %12
 [FA]/4e/4[FA]/4E/4 [FA]/4e/4[FA]/4E/4 [GB]/4e/4[GB]/4E/4 [GB]/4e/4[GB]/4E/4 | %13
 [FA]/4e/4[FA]/4E/4 [Fc]/4e/4[Fc]/4E/4 [GB]/4e/4[GB]/4E/4 [GB]/4e/4[GB]/4E/4 | %14
 [GB]/4e/4[GB]/4E/4 [GB]/4e/4[GB]/4E/4 [GB]/4e/4[GB]/4E/4 [GB]/4e/4[GB]/4E/4 | %15
 [Ac]/4^d/4[Ac]/4E/4 [Ac]/4d/4[Ac]/4E/4 [GB]/4e/4[GB]/4E/4 [GB]/4e/4[GB]/4E/4 | %16
 A/4^d/4A/4F/4 A/4c/4A/4F/4 [GB]/4e/4[GB]/4E/4 [GB]/4e/4[GB]/4E/4 | %17
 [Gc]/4e/4[Gc]/4E/4 [Gc]/4e/4[Gc]/4E/4 [Gc]/4e/4[Gc]/4E/4 [Gc]/4e/4[Gc]/4E/4 | %18
 [GB]/4d/4[GB]/4=F/4 [GB]/4d/4B/4F/4 [Gc]/4e/4[Gc]/4E/4 [Gc]/4e/4[Gc]/4E/4 | %19
 [Gc]/4e/4[Gc]/4E/4 [Gc]/4e/4[Gc]/4E/4 [Gc]/4e/4[Gc]/4E/4 [Gc]/4e/4[Gc]/4E/4 | %20
 [GB]/4d/4[GB]/4=F/4 [GB]/4d/4[GB]/4F/4 [Gc]/4e/4[Gc]/4E/4 [Gc]/4e/4[Gc]/4E/4 | %21
 G/4c/4G/4C/4 G/4_B/4G/4D/4 G/4A/4G/4E/4 G/4^c/4G/4E/4 | %22
!<(! A/4d/4A/4D/4 A/4e/4A/4E/4!<)!!mf!!>(! A/4=f/4A/4=F/4 A/4f/4[EA]/4e/4!>)! | %23
!p! A/4d/4A/4D/4 A/4d/4A/4D/4 G/4c/4G/4E/4 G/4c/4G/4E/4 | %24
 G/4B/4G/4=F/4 G/4B/4G/4F/4 E/4c/4F/4c/4 G/4c/4F/4c/4 | %25
 E/4c/4G/4E/4 G/4d/4G/4D/4 G/4^c/4G/4E/4 A/4c/4A/4E/4 | %26
!<(! A/4d/4A/4=F/4 A/4e/4A/4G/4!<)!!mf!!>(! A/4=f/4A/4F/4 A/4f/4[EA]/4!p!e/4!>)! | %27
 A/4d/4A/4D/4 A/4d/4A/4D/4 G/4c/4G/4E/4 G/4^c/4G/4E/4 | %28
 G/4d/4G/4=F/4 G/4B/4G/4D/4 G/4c/4G/4E/4 G/4c/4G/4E/4 | %29
 G/4d/4G/4D/4 G/4B/4G/4B,/4 G/4c/4G/4C/4 G/4c/4G/4C/4 | G/4=f/4G/4=F/4 G/4d/4G/4D/4 | %31
 G/4e/4G/4E/4 G/4e/4G/4E/4 |!pp! A/4c/4A/4E/4 A/4c/4A/4E/4 A/4c/4A/4E/4 A/4c/4A/4E/4 | %33
 ^G/4B/4G/4E/4 G/4B/4G/4E/4 G/4B/4G/4E/4 G/4B/4G/4E/4 | %34
 =G/4B/4G/4E/4 G/4B/4G/4E/4 G/4B/4G/4E/4 G/4_B/4G/4E/4 | %35
 G/4_B/4G/4D/4 G/4B/4G/4D/4 F/4A/4F/4D/4 F/4A/4F/4D/4 | %36
 =F/4A/4F/4C/4 F/4A/4F/4C/4 F/4A/4F/4C/4 F/4A/4F/4C/4 | %37
 E/4G/4E/4C/4 E/4G/4E/4C/4 E/4G/4E/4C/4 E/4G/4E/4C/4 | %38
 E/4G/4E/4C/4 E/4G/4E/4C/4 E/4G/4E/4C/4 E/4A/4E/4C/4 | %39
 E/4G/4E/4B,/4 E/4G/4E/4B,/4 ^D/4F/4D/4B,/4 D/4F/4D/4B,/4 | %40
"_cresc." [^DF]/4B/4F/4B,/4 [DF]/4B/4[DF]/4B,/4 [DF]/4B/4[DF]/4B,/4 F/4B/4F/4B,/4 | %41
!mf! ^G/4B/4G/4E/4 G/4^B/4G/4F/4 G/4^c/4G/4E/4 G/4c/4G/4E/4 | %42
!<(! ^G/4^c/4G/4E/4 G/4c/4[FG]/4!f!^d/4!<)!!>(! [EG]/4e/4G/4E/4 G/4c/4G/4E/4!>)! | %43
!mp! F/4B/4F/4^D/4 F/4^A/4F/4E/4 F/4B/4F/4D/4 F/4B/4F/4D/4 | %44
!mf!!>(! ^^F/4^c/4F/4^C/4!>)!!p! F/4c/4F/4C/4 ^G/4B/4G/4B,/4 G/4B/4G/4B,/4 | %45
!mf!!>(! ^^F/4^c/4F/4^C/4!>)!!p! F/4c/4F/4C/4 ^G/4B/4G/4B,/4 G/4B/4G/4B,/4 | %46
!<(! ^G/4^c/4G/4^C/4 G/4^d/4G/4!mf!^F/4!<)!!>(! G/4e/4G/4E/4 G/4c/4G/4E/4!>)! | %47
!mp! F/4B/4F/4^D/4 F/4B/4F/4D/4 F/4^A/4F/4E/4 F/4A/4F/4E/4 | %48
 [^DF]/4B/4[DF]/4B,/4 [DF]/4B/4[DF]/4B,/4 [DF]/4B/4[DF]/4B,/4 [DF]/4B/4[DF]/4B,/4 | %49
"_dim." [^DF]/4B/4[DF]/4B,/4 [DF]/4B/4[DF]/4B,/4 [DF]/4B/4[DF]/4B,/4 [DF]/4B/4[DF]/4B,/4 | %50
!p! [=DF]/4c/4[DF]/4C/4 [DF]/4c/4[DF]/4C/4 [DG]/4B/4[DG]/4B,/4 [DG]/4B/4[DG]/4B,/4 | %51
 [DG]/4A/4[DG]/4A,/4 [DG]/4A/4[DG]/4A,/4 [DF]/4A/4[DF]/4A,/4 [DF]/4B/4[DF]/4B,/4 | %52
!pp! G/4d/4G/4D/4 A/4d/4A/4D/4 B/4d/4B/4D/4 G/4d/4G/4D/4 | %53
 G/4e/4G/4E/4 ^G/4d/4G/4E/4 A/4c/4A/4E/4 A/4c/4A/4E/4 | %54
 A/4e/4A/4E/4 ^G/4d/4G/4E/4 A/4c/4A/4E/4 A/4c/4A/4E/4 | %55
 F/4d/4F/4D/4 G/4d/4G/4D/4 A/4d/4A/4D/4 F/4d/4F/4D/4 | %56
 G/4d/4G/4D/4 [FA]/4d/4[FA]/4D/4 [GB]/4d/4[GB]/4D/4 [GB]/4d/4[GB]/4D/4 | %57
 G/4d/4G/4D/4 [FA]/4d/4[FA]/4D/4 G/4d/4G/4D/4 G/4d/4G/4D/4 | %58
 [GB]/4e/4[GB]/4E/4 [GB]/4e/4[GB]/4E/4 [GB]/4e/4[GB]/4E/4 [GB]/4e/4[GB]/4E/4 | %59
 [FA]/4e/4[FA]/4E/4 [FA]/4e/4[FA]/4E/4 [GB]/4e/4[GB]/4E/4 [GB]/4e/4[GB]/4E/4 | %60
 [FA]/4e/4[FA]/4E/4 [Fc]/4e/4[Fc]/4E/4 [GB]/4e/4[GB]/4E/4 [GB]/4e/4[GB]/4E/4 | %61
 [GB]/4e/4[GB]/4E/4 [GB]/4e/4[GB]/4E/4 [GB]/4e/4[GB]/4E/4 [GB]/4e/4[GB]/4E/4 | %62
 [Ac]/4^d/4[Ac]/4E/4 [Ac]/4d/4[Ac]/4E/4 [GB]/4e/4[GB]/4E/4 [GB]/4e/4[GB]/4E/4 | %63
 A/4c/4A/4E/4 A/4c/4A/4F/4 [GB]/4e/4[GB]/4E/4 [GB]/4e/4[GB]/4E/4 | %64
!pp! [Gc]/4e/4[Gc]/4E/4 [Gc]/4e/4[Gc]/4E/4 [Gc]/4e/4[Gc]/4E/4 [Gc]/4e/4[Gc]/4E/4 | %65
 [GB]/4d/4[GB]/4D/4 [GB]/4d/4[GB]/4D/4 [EG]/4c/4[EG]/4C/4 [EG]/4c/4[EG]/4C/4 | %66
 [DG]/4B/4[DG]/4B,/4 [DG]/4B/4[DG]/4B,/4 [^CG]/4B/4[CG]/4B,/4 [CG]/4B/4[CG]/4B,/4 | %67
 [DG]/4B/4[DG]/4B,/4 [DG]/4B/4[DG]/4B,/4 [DF]/4A/4[DF]/4=C/4 [DF]/4A/4[DF]/4C/4 | %68
 [B,D]/4G/4[B,D]/4G,/4 [B,D]/4G/4[B,D]/4G,/4 [DG]/4B/4[DG]/4B,/4 [GB]/4d/4[GB]/4D/4 | %69
 [Ac]/4d/4[Ac]/4D/4 [Ac]/4d/4[Ac]/4D/4 [FA]/4d/4[FA]/4D/4 [DF]/4A/4[DF]/4C/4 | %70
"_dim." [B,D]/4G/4[B,D]/4G,/4 [B,D]/4G/4[B,D]/4G,/4 [DG]/4B/4[DG]/4B,/4 [GB]/4d/4[^GB]/4D/4 | %71
 [Ac]/4d/4[Ac]/4D/4 [Ac]/4d/4[Ac]/4D/4 [FA]/4d/4[FA]/4D/4 [DF]/4A/4[DF]/4C/4 | %72
!pp! [B,D]/4G/4[B,D]/4G,/4 [CE]/4G/4[CE]/4G,/4 [B,D]/4G/4[B,D]/4G,/4 [A,C]/4F/4[A,C]/4G,/4 | %73
!pp! [B,D]/4G/4[B,D]/4G,/4 [CE]/4G/4[CE]/4G,/4 [B,D]/4G/4[B,D]/4G,/4 [A,C]/4F/4[A,C]/4G,/4 | %74
!ppp! [B,D]/4G/4[B,D]/4G,/4 [B,D]/4G/4[B,D]/4G,/4 [B,D]/4G/4[B,D]/4G,/4 [B,D]/4G/4[B,D]/4G,/4 | %75
!ppp! !fermata![G,B,DG]4 |] %76
V:3
 [G,,D,]4 | [G,,D,]4 | [G,,D,]4 | [G,,D,]4 | [G,,D,]4 | [G,,D,]2 z3/2 (G,,/ | (C,)E,A,,) z | %7
 ([C,A,][E,B,][A,C]) z | D,2 z3/2 (D,/ | (B,,)D,G,) z | ([B,,G,][D,C][G,B,]) z | %11
 E,2 z/ (.E,/.E,/.E,/) | E,2 z/ (.E,/.E,/.E,/) | CB,/A,/ B,2 | E,2 z/ (.E,/.E,/.E,/) | %15
 E,2 z/ (.E,/.E,/.E,/) | C^DE z | [C,G,]2 z/ (.[C,G,]/.[C,G,]/.[C,G,]/) | %18
 [C,G,]2 z/ (.[C,G,]/.[C,G,]/.[C,G,]/) | [C,G,]2 z/ (.[C,G,]/.[C,G,]/.[C,G,]/) | %20
 [C,G,]2 z/ (.[C,G,]/.[C,G,]/.[C,G,]/) | (E,D,^C,A,,) | (=F,^C, D,>E,) | (=F,^F, G,2) | %24
 (G,,2 C,/D,/E,/D,/) | (C,_B,,A,, A,/>G,/) | (=F,^C, D,>E,) | (=F,^F, G,2) | (G,,2 C,) z | %29
 (G,/=F/)(F/D/) E2 | (G,/D/)(D/B,/) | C2 | A,,2- A,,/.B,,/.C,/.D,/ | E,4 | (E,,3 G,,) | %35
 (D,,7/2 E,,/) | =F,,2- F,,/.G,,/.A,,/.B,,/ | C,4 | (C,,3 E,,) | B,,,4 | B,,3 ^D, | E,^D, ^C,>D, | %42
 E,>^B,, ^C,E, | F,F,, B,,>^C, | (^D,2 E,2) | ([^D,^A,]2 [E,^G,]2) | [E,^G,][^B,,G,][^C,G,][E,G,] | %47
 F,2 F,,2 | B,,4- | B,,(.[B,,,B,,].[B,,,B,,].[B,,,B,,]) | %50
 ([A,,,A,,]2 [G,,,G,,]/[A,,,A,,]/[B,,,B,,]/[C,,C,]/) | [D,,D,]4 | [G,,D,]2 z3/2 (G,,/ | %53
 (C,)E,A,,) z | ([C,A,][E,B,][A,C]) z | D,2 z3/2 (D,/ | (B,,)D,G,) z | ([B,,G,][D,C][G,B,]) z | %58
 E,2 z/ (.E,/.E,/.E,/) | E,2 z/ (.E,/.E,/.E,/) | CB,/A,/ B,2 | E,2 z/ (.E,/.E,/.E,/) | %62
 E,2 z/ (.E,/.E,/.E,/) | C^DE z | (C,4 | G,,2 C,2) | (D,2 [E,,E,]2 | [D,,D,]4) | [G,,,G,,]4 | %69
 [G,,,G,,]4 | [G,,,G,,]4 | [G,,,G,,]4 | [G,,,G,,]4 | [G,,,G,,]4 | [G,,,G,,]4 | %75
 !fermata![G,,,G,,]4 |] %76
V:4
 x4 | x4 | x4 | x4 | x4 | x4 | x4 | x4 | x4 | x4 | x4 | x4 | x4 | E,4 | x4 | x4 | E,3 x | x4 | x4 | %19
 x4 | x4 | x4 | x4 | x4 | x4 | x4 | x4 | x4 | x4 | x4 | x2 | x2 | x4 | x4 | x4 | x4 | x4 | x4 | %38
 x4 | x4 | x4 | x4 | x4 | x4 | x4 | x4 | x4 | x4 | x4 | x4 | x4 | x4 | x4 | x4 | x4 | x4 | x4 | %57
 x4 | x4 | x4 | E,4 | x4 | x4 | E,3 x | x4 | x4 | x4 | x4 | x4 | x4 | x4 | x4 | x4 | x4 | x4 | %75
 x4 |] %76

